usr/share/icons/Ambiant-MATE/actions/16/go-home.svg

<?xml version="1.0" encoding="UTF-8" standalone="no"?>
<!-- Created with Inkscape (http://www.inkscape.org/) -->

<svg
   xmlns:svg="http://www.w3.org/2000/svg"
   xmlns="http://www.w3.org/2000/svg"
   xmlns:xlink="http://www.w3.org/1999/xlink"
   version="1.1"
   width="16"
   height="16"
   id="svg2405">
  <defs
     id="defs2407">
    <linearGradient
       id="linearGradient3662">
      <stop
         id="stop3664"
         style="stop-color:#c17d11;stop-opacity:1"
         offset="0" />
      <stop
         id="stop3666"
         style="stop-color:#8f5902;stop-opacity:1"
         offset="1" />
    </linearGradient>
    <linearGradient
       id="linearGradient3656">
      <stop
         id="stop3658"
         style="stop-color:#c17d11;stop-opacity:1"
         offset="0" />
      <stop
         id="stop3660"
         style="stop-color:#e9b96e;stop-opacity:1"
         offset="1" />
    </linearGradient>
    <linearGradient
       id="linearGradient4873">
      <stop
         id="stop4875"
         style="stop-color:white;stop-opacity:1"
         offset="0" />
      <stop
         id="stop4877"
         style="stop-color:white;stop-opacity:0"
         offset="1" />
    </linearGradient>
    <linearGradient
       id="linearGradient2341">
      <stop
         id="stop2343"
         style="stop-color:black;stop-opacity:1"
         offset="0" />
      <stop
         id="stop2345"
         style="stop-color:black;stop-opacity:0"
         offset="1" />
    </linearGradient>
    <linearGradient
       id="linearGradient2299">
      <stop
         id="stop2301"
         style="stop-color:white;stop-opacity:1"
         offset="0" />
      <stop
         id="stop2303"
         style="stop-color:white;stop-opacity:0"
         offset="1" />
    </linearGradient>
    <linearGradient
       x1="80.223602"
       y1="117.5205"
       x2="48.046001"
       y2="59.7995"
       id="XMLID_2_"
       gradientUnits="userSpaceOnUse"
       gradientTransform="matrix(0.314683,0,0,0.314683,4.128264,3.742874)">
      <stop
         id="stop17"
         style="stop-color:#ccc;stop-opacity:1"
         offset="0" />
      <stop
         id="stop19"
         style="stop-color:white;stop-opacity:1"
         offset="0.9831" />
      <midPointStop
         offset="0"
         style="stop-color:#CCCCCC"
         id="midPointStop48" />
      <midPointStop
         offset="0.5"
         style="stop-color:#CCCCCC"
         id="midPointStop50" />
      <midPointStop
         offset="0.9831"
         style="stop-color:#FFFFFF"
         id="midPointStop52" />
    </linearGradient>
    <linearGradient
       x1="64.387703"
       y1="65.124001"
       x2="64.387703"
       y2="35.569"
       id="XMLID_39_"
       gradientUnits="userSpaceOnUse"
       gradientTransform="matrix(0.354101,0,0,0.354101,1.638679,-0.08364921)">
      <stop
         id="stop336"
         style="stop-color:white;stop-opacity:1"
         offset="0" />
      <stop
         id="stop338"
         style="stop-color:#ff6200;stop-opacity:1"
         offset="0.85390002" />
      <stop
         id="stop340"
         style="stop-color:#f25d00;stop-opacity:1"
         offset="1" />
      <midPointStop
         offset="0"
         style="stop-color:#FFFFFF"
         id="midPointStop335" />
      <midPointStop
         offset="0.5"
         style="stop-color:#FFFFFF"
         id="midPointStop337" />
      <midPointStop
         offset="0.8539"
         style="stop-color:#FF6200"
         id="midPointStop339" />
      <midPointStop
         offset="0.5"
         style="stop-color:#FF6200"
         id="midPointStop341" />
      <midPointStop
         offset="1"
         style="stop-color:#F25D00"
         id="midPointStop343" />
    </linearGradient>
    <radialGradient
       cx="11.68129"
       cy="19.554111"
       r="8.2452126"
       fx="11.68129"
       fy="19.554111"
       id="radialGradient2977"
       xlink:href="#linearGradient2341"
       gradientUnits="userSpaceOnUse"
       gradientTransform="matrix(1.4349548,0,0,-1.315385,-2.3880831,33.880552)" />
    <radialGradient
       cx="7.5326638"
       cy="24.202574"
       r="8.2452126"
       fx="7.5326638"
       fy="24.202574"
       id="radialGradient2980"
       xlink:href="#linearGradient2299"
       gradientUnits="userSpaceOnUse"
       gradientTransform="matrix(1.3605724,0,0,1.2802911,-8.376606,-23.015102)" />
    <linearGradient
       x1="64.387703"
       y1="65.124001"
       x2="64.387703"
       y2="35.569"
       id="linearGradient2984"
       xlink:href="#XMLID_39_"
       gradientUnits="userSpaceOnUse"
       gradientTransform="matrix(0.12351161,0,0,0.11667092,0.25065496,0.42212201)" />
    <linearGradient
       x1="19.645313"
       y1="30.945076"
       x2="20.598284"
       y2="45.897984"
       id="linearGradient2995"
       xlink:href="#linearGradient3656"
       gradientUnits="userSpaceOnUse"
       gradientTransform="matrix(0.17946191,0,0,0.31589346,3.0850656,1.7719609)" />
    <linearGradient
       x1="19.641373"
       y1="47.097904"
       x2="17"
       y2="39.408337"
       id="linearGradient2998"
       xlink:href="#linearGradient3662"
       gradientUnits="userSpaceOnUse"
       gradientTransform="matrix(0.33333334,0,0,0.33333333,0.33333337,1.8165884e-7)" />
    <linearGradient
       x1="24.066557"
       y1="25.745584"
       x2="24.066557"
       y2="47.865883"
       id="linearGradient3001"
       xlink:href="#linearGradient4873"
       gradientUnits="userSpaceOnUse"
       gradientTransform="matrix(0.26483829,0,0,0.28061226,1.5092105,1.5357141)" />
    <linearGradient
       x1="29.815948"
       y1="46.024483"
       x2="29.815948"
       y2="5.5"
       id="linearGradient3004"
       xlink:href="#XMLID_2_"
       gradientUnits="userSpaceOnUse"
       gradientTransform="matrix(0.3054388,0,0,0.31732906,0.51885171,0.52206859)" />
  </defs>
  <path
     d="M 2.4999999,8.4552953 2.5190903,15.5 13.5,15.5 13.5,8.4552953 7.8493831,2.4260429 2.5000001,8.4552953 z"
     id="rect5117"
     style="fill:url(#linearGradient3004);fill-opacity:1;fill-rule:nonzero;stroke:#757575;stroke-width:0.99999988;stroke-linecap:butt;stroke-linejoin:round;stroke-miterlimit:4;stroke-opacity:1;stroke-dasharray:none;stroke-dashoffset:0;marker:none;visibility:visible;display:inline;overflow:visible" />
  <path
     d="m 3.4999999,8.5510204 0,5.9489796 L 12.5,14.5 12.5,8.5510204 7.8653294,3.5 3.4999999,8.5510204 z"
     id="path7391"
     style="opacity:0.4;fill:none;stroke:url(#linearGradient3001);stroke-width:0.99999982;stroke-linecap:butt;stroke-linejoin:miter;stroke-miterlimit:4;stroke-opacity:1;stroke-dasharray:none;stroke-dashoffset:0;marker:none;visibility:visible;display:inline;overflow:visible" />
  <path
     d="m 8,10 0,5 -4,0 0,-5 4,0 z"
     id="path3438"
     style="fill:url(#linearGradient2998);fill-opacity:1;fill-rule:evenodd" />
  <path
     d="m 7,11 0,4 -2,0 0,-4 2,0 z"
     id="path3440"
     style="fill:url(#linearGradient2995);fill-opacity:1;fill-rule:evenodd" />
  <rect
     width="1.9987555"
     height="1.9987555"
     rx="0.38118067"
     ry="0.38233405"
     x="9.5006218"
     y="10.500622"
     id="rect3464"
     style="fill:#b3dde5;fill-opacity:1;fill-rule:nonzero;stroke:#757575;stroke-width:1.00124454;stroke-linecap:butt;stroke-linejoin:miter;stroke-miterlimit:4;stroke-opacity:1;stroke-dasharray:none;stroke-dashoffset:0;marker:none;visibility:visible;display:inline;overflow:visible" />
  <path
     d="M 8.2065346,4.2583095 14.808357,9.9155208 14.980902,10.044676 15.121706,9.9882033 14.991647,9.7372439 14.894815,9.6636249 8.2065346,4.5327865 1.4434069,9.719977 1.3605302,9.767463 1.2849413,10.000338 1.4361196,10.042928 1.5702532,9.9413084 8.2065345,4.2583119 z"
     id="path3472"
     style="fill:url(#linearGradient2984)" />
  <path
     d="m 0.49902744,7.1621708 0,2.3610652 1.42876176,0.680163 c 0,0 5.9966482,-5.5540848 6.0722376,-5.6103206 l 6.0722372,5.6154096 1.428763,-0.6998742 0,-2.3430892 L 8.0000268,0.49925343 0.49902744,7.1621708 z"
     id="path3474"
     style="fill:#d1524c;fill-opacity:1;stroke:#973137;stroke-width:0.99800003;stroke-miterlimit:4;stroke-opacity:1;stroke-dasharray:none" />
  <path
     d="M 1,7.2002554 1.0267557,9.276 8.1438092,2.7390213 8.1204703,0.9499535 1,7.2002554 z"
     id="path3476"
     style="opacity:0.40909089;fill:url(#radialGradient2980);fill-opacity:1;fill-rule:nonzero;stroke:none;stroke-width:1;marker:none;visibility:visible;display:inline;overflow:visible" />
  <path
     d="m 8.0000284,2.8388037 -1.3e-6,-1.7890678 7.1438089,6.2835345 0,2.042512 -7.1438076,-6.5369787 z"
     id="path3478"
     style="opacity:0.13636367;fill:url(#radialGradient2977);fill-opacity:1;fill-rule:nonzero;stroke:none;stroke-width:1;marker:none;visibility:visible;display:inline;overflow:visible" />
</svg>

<?xml version="1.0" encoding="UTF-8" standalone="no"?>
<!-- Created with Inkscape (http://www.inkscape.org/) -->
<svg id="svg2405" xmlns="http://www.w3.org/2000/svg" height="16" width="16" version="1.1" xmlns:xlink="http://www.w3.org/1999/xlink">
 <defs id="defs2407">
  <radialGradient id="radialGradient2977" gradientUnits="userSpaceOnUse" cy="19.554" cx="11.681" gradientTransform="matrix(1.435 0 0 -1.3154 -2.3881 33.881)" r="8.2452">
   <stop id="stop2343" offset="0"/>
   <stop id="stop2345" style="stop-opacity:0" offset="1"/>
  </radialGradient>
  <radialGradient id="radialGradient2980" gradientUnits="userSpaceOnUse" cy="24.203" cx="7.5327" gradientTransform="matrix(1.3606 0 0 1.2803 -8.3766 -23.015)" r="8.2452">
   <stop id="stop2301" style="stop-color:#fff" offset="0"/>
   <stop id="stop2303" style="stop-color:#fff;stop-opacity:0" offset="1"/>
  </radialGradient>
  <linearGradient id="linearGradient2984" y2="35.569" gradientUnits="userSpaceOnUse" x2="64.388" gradientTransform="matrix(.12351 0 0 .11667 .25065 .42212)" y1="65.124" x1="64.388">
   <stop id="stop336" style="stop-color:#fff" offset="0"/>
   <stop id="stop338" style="stop-color:#ff6200" offset=".85390"/>
   <stop id="stop340" style="stop-color:#f25d00" offset="1"/>
  </linearGradient>
  <linearGradient id="linearGradient2995" y2="45.898" gradientUnits="userSpaceOnUse" x2="20.598" gradientTransform="matrix(.17946 0 0 .31589 3.0851 1.772)" y1="30.945" x1="19.645">
   <stop id="stop3658" style="stop-color:#c17d11" offset="0"/>
   <stop id="stop3660" style="stop-color:#e9b96e" offset="1"/>
  </linearGradient>
  <linearGradient id="linearGradient2998" y2="39.408" gradientUnits="userSpaceOnUse" x2="17" gradientTransform="matrix(.33333 0 0 .33333 .33333 1.8166e-7)" y1="47.098" x1="19.641">
   <stop id="stop3664" style="stop-color:#c17d11" offset="0"/>
   <stop id="stop3666" style="stop-color:#8f5902" offset="1"/>
  </linearGradient>
  <linearGradient id="linearGradient3001" y2="47.866" gradientUnits="userSpaceOnUse" x2="24.067" gradientTransform="matrix(.26484 0 0 .28061 1.5092 1.5357)" y1="25.746" x1="24.067">
   <stop id="stop4875" style="stop-color:#fff" offset="0"/>
   <stop id="stop4877" style="stop-color:#fff;stop-opacity:0" offset="1"/>
  </linearGradient>
  <linearGradient id="linearGradient3004" y2="5.5" gradientUnits="userSpaceOnUse" x2="29.816" gradientTransform="matrix(.30544 0 0 .31733 .51885 .52207)" y1="46.024" x1="29.816">
   <stop id="stop17" style="stop-color:#ccc" offset="0"/>
   <stop id="stop19" style="stop-color:#fff" offset=".9831"/>
  </linearGradient>
 </defs>
 <path id="rect5117" style="stroke-linejoin:round;stroke:#757575;fill:url(#linearGradient3004)" d="m2.5 8.4553 0.0191 7.0447h10.981v-7.0447l-5.6506-6.0293-5.3494 6.0293z"/>
 <path id="path7391" style="opacity:.4;stroke:url(#linearGradient3001);fill:none" d="m3.5 8.551v5.949h9v-5.949l-4.6347-5.051-4.3653 5.051z"/>
 <path id="path3438" style="fill:url(#linearGradient2998);fill-rule:evenodd" d="m8 10v5h-4v-5h4z"/>
 <path id="path3440" style="fill:url(#linearGradient2995);fill-rule:evenodd" d="m7 11v4h-2v-4h2z"/>
 <rect id="rect3464" style="stroke:#757575;stroke-width:1.0012;fill:#b3dde5" rx=".38118" ry=".38233" height="1.9988" width="1.9988" y="10.501" x="9.5006"/>
 <path id="path3472" style="fill:url(#linearGradient2984)" d="m8.2065 4.2583 6.6015 5.6572 0.173 0.1295 0.141-0.0568-0.13-0.251-0.097-0.0736-6.6885-5.1308-6.7631 5.1872-0.0829 0.0475-0.0756 0.2325 0.1512 0.043 0.1342-0.1017 6.6362-5.683z"/>
 <path id="path3474" style="stroke:#973137;stroke-width:0.998;fill:#d1524c" d="m0.49903 7.1622v2.3611l1.4288 0.68016s5.9966-5.5541 6.0722-5.6103l6.0722 5.6154 1.4288-0.69987v-2.3431l-7.501-6.6658-7.501 6.6629z"/>
 <path id="path3476" style="opacity:.40909;fill:url(#radialGradient2980)" d="m1 7.2003 0.0268 2.0757 7.117-6.537-0.0233-1.789-7.1205 6.2503z"/>
 <path id="path3478" style="opacity:.13636;fill:url(#radialGradient2977)" d="m8 2.8388-0.0000013-1.7891 7.1438 6.2835v2.0425l-7.1438-6.537z"/>
</svg>
